X: 35642
T: Sailing Through The Narrows
R: waltz
M: 3/4
K: Gmajor
B2 B|ABd|BcE|EFG|A2 E-|E2 G|F G/F/ E|DGA|
B2 B|ABd|BcE|EFG|GFE|DAB|G3-|G:|
E2 E|DEF|FGE|EFG|GFD-|D A2-|ABA|GFG|
E2 E|DEF|FGE|EFG|GFE|DAB|G3-|G:|

